assets/img/microillustration/consistency.svg

<?xml version="1.0" encoding="UTF-8"?>
<svg width="106px" height="106px" viewBox="0 0 106 106" version="1.1" xmlns="http://www.w3.org/2000/svg" xmlns:xlink="http://www.w3.org/1999/xlink">
    <title>4. Elements_Microillustrations/Consistency</title>
    <g id="4.-Elements_Microillustrations/Consistency" stroke="none" stroke-width="1" fill="none" fill-rule="evenodd">
        <path d="M45.1454921,31.5 C48.0496455,29.7750854 50,26.584742 50,22.9319817 C50,17.4470194 45.6043023,13 40.180804,13 C36.416587,13 33.1481811,15.1449155 31.5004111,18.290348 C29.8526412,15.1449155 26.5842352,13 22.819196,13 C17.3965199,13 13,17.4470194 13,22.9319817 C13,26.584742 14.9511767,29.7750854 17.8553301,31.5 C14.9511767,33.2249146 13,36.415258 13,40.0680183 C13,45.5529806 17.3965199,50 22.819196,50 C26.5842352,50 29.8526412,47.8550845 31.5004111,44.709652 C33.1481811,47.8550845 36.416587,50 40.180804,50 C45.6043023,50 50,45.5529806 50,40.0680183 C50,36.415258 48.0496455,33.2249146 45.1454921,31.5" id="Fill-6" fill="#0096B2"></path>
        <path d="M89.1454921,75.5 C92.0496455,73.7750854 94,70.584742 94,66.9319817 C94,61.4470194 89.6043023,57 84.180804,57 C80.416587,57 77.1481811,59.1449155 75.5004111,62.290348 C73.8526412,59.1449155 70.5842352,57 66.819196,57 C61.3965199,57 57,61.4470194 57,66.9319817 C57,70.584742 58.9511767,73.7750854 61.8553301,75.5 C58.9511767,77.2249146 57,80.415258 57,84.0680183 C57,89.5529806 61.3965199,94 66.819196,94 C70.5842352,94 73.8526412,91.8550845 75.5004111,88.709652 C77.1481811,91.8550845 80.416587,94 84.180804,94 C89.6043023,94 94,89.5529806 94,84.0680183 C94,80.415258 92.0496455,77.2249146 89.1454921,75.5" id="Fill-6" fill="#0096B2"></path>
        <path d="M51,75.5 C51,86.2695334 42.2693371,95 31.4995617,95 C20.7297862,95 12,86.2695334 12,75.5 C12,64.7304666 20.7297862,56 31.4995617,56 C42.2693371,56 51,64.7304666 51,75.5" id="Fill-12" fill="#0096B2"></path>
        <path d="M95,31.5 C95,42.2695334 86.2693371,51 75.4995617,51 C64.7297862,51 56,42.2695334 56,31.5 C56,20.7304666 64.7297862,12 75.4995617,12 C86.2693371,12 95,20.7304666 95,31.5" id="Fill-12" fill="#0096B2"></path>
    </g>
</svg>

<?xml version="1.0" encoding="UTF-8"?>
<svg version="1.1" viewBox="0 0 106 106" xmlns="http://www.w3.org/2000/svg">
<title>4. Elements_Microillustrations/Consistency</title>
<g fill="#009BBD" fill-rule="evenodd">
<path id="b" d="m45.145 31.5c2.9042-1.7249 4.8545-4.9153 4.8545-8.568 0-5.485-4.3957-9.932-9.8192-9.932-3.7642 0-7.0326 2.1449-8.6804 5.2903-1.6478-3.1454-4.9162-5.2903-8.6812-5.2903-5.4227 0-9.8192 4.447-9.8192 9.932 0 3.6528 1.9512 6.8431 4.8553 8.568-2.9042 1.7249-4.8553 4.9153-4.8553 8.568 0 5.485 4.3965 9.932 9.8192 9.932 3.765 0 7.0334-2.1449 8.6812-5.2903 1.6478 3.1454 4.9162 5.2903 8.6804 5.2903 5.4235 0 9.8192-4.447 9.8192-9.932 0-3.6528-1.9504-6.8431-4.8545-8.568"/>
<path d="m89.145 75.5c2.9042-1.7249 4.8545-4.9153 4.8545-8.568 0-5.485-4.3957-9.932-9.8192-9.932-3.7642 0-7.0326 2.1449-8.6804 5.2903-1.6478-3.1454-4.9162-5.2903-8.6812-5.2903-5.4227 0-9.8192 4.447-9.8192 9.932 0 3.6528 1.9512 6.8431 4.8553 8.568-2.9042 1.7249-4.8553 4.9153-4.8553 8.568 0 5.485 4.3965 9.932 9.8192 9.932 3.765 0 7.0334-2.1449 8.6812-5.2903 1.6478 3.1454 4.9162 5.2903 8.6804 5.2903 5.4235 0 9.8192-4.447 9.8192-9.932 0-3.6528-1.9504-6.8431-4.8545-8.568"/>
<path id="a" d="m51 75.5c0 10.77-8.7307 19.5-19.5 19.5-10.77 0-19.5-8.7305-19.5-19.5s8.7298-19.5 19.5-19.5c10.77 0 19.5 8.7305 19.5 19.5"/>
<path d="m95 31.5c0 10.77-8.7307 19.5-19.5 19.5-10.77 0-19.5-8.7305-19.5-19.5s8.7298-19.5 19.5-19.5c10.77 0 19.5 8.7305 19.5 19.5"/>
</g>
</svg>
